**kern	**kern	**dynam
*part1	*part1	*part1
*staff2	*staff1	*
*I"Piano	*	*
*clefF4	*clefG2	*
*k[f#c#g#]	*k[f#c#g#]	*
=1	=1	=1
8DDL 8D	(8F#L 8f#	.
8AA	8d	.
8BBB 8BB	8G#X 8g#X	.
8DJ	8dJ	.
=	=	=
*^	*	*
4C#	8CC#L	8AL 8a	.
.	8FF#	8c#	.
4BB	8DD	8F# 8f#	.
.	8BBBJ	8dJ)	.
=	=	=	=
4C#	2EE	(8AL 8a	.
.	.	8e	.
4D	.	8G#) 8g#	.
.	.	8eJ	.
=	=	=	=
*	*	*^	*
4C#	2EE	(8a	(4A	.
.	.	4e	.	.
4BB	.	.	4G#)	.
!	!	!LO:TX:b:i:t=dim.	!	!
.	.	[8d	.	.
*	*	*v	*v	*
=	=	=	=
*	*^	*	*
4E	2EE	4AA/	8d]	.
.	.	.	4c#	.
4D	.	4GG#/	.	.
.	.	.	8B)	.
*v	*v	*v	*	*
*	*clefF4	*
=	=	=
*^	*^	*
2AA	2EE	(4A	2C#	>
.	.	[4E	.	.
=	=	=	=	=
2GG#	2EE	4E]	2BB 2D	.
.	.	4E)	.	.
*v	*v	*	*	*
*	*v	*v	*
=	=	=
!	!	!LO:DY:a
(4AAA 4AA	(4E 4A 4c#	] pp
4BBB 4AA	4E 4A 4d	.
=	=	=
4CC# 4AA	4E 4A 4e	.
4BBB) 4AA	4E) 4G# 4d	.
=	=	=
*-	*-	*-
!!!system-decoration: {(s1,s2)}
